frontend/src/images/Infrahub-SVG-verti.svg

<svg width="285" height="294" viewBox="0 0 285 294" fill="none" xmlns="http://www.w3.org/2000/svg">
<path d="M3.98567 252.569H10.8692V282.312H3.98567V252.569ZM51.5806 252.569V282.312H45.9293L31.1001 264.254V282.312H24.3016V252.569H29.9953L44.7821 270.627V252.569H51.5806ZM71.8749 258.093V265.953H85.6419V271.477H71.8749V282.312H64.9914V252.569H87.469V258.093H71.8749ZM117.454 282.312L111.717 274.027H111.377H105.386V282.312H98.5027V252.569H111.377C114.012 252.569 116.292 253.008 118.218 253.886C120.173 254.764 121.674 256.011 122.722 257.625C123.77 259.24 124.295 261.152 124.295 263.361C124.295 265.571 123.756 267.483 122.68 269.098C121.632 270.684 120.13 271.902 118.176 272.752L124.847 282.312H117.454ZM117.326 263.361C117.326 261.69 116.788 260.415 115.711 259.537C114.635 258.631 113.063 258.178 110.995 258.178H105.386V268.545H110.995C113.063 268.545 114.635 268.092 115.711 267.186C116.788 266.279 117.326 265.004 117.326 263.361ZM155.71 275.939H141.901L139.266 282.312H132.213L145.47 252.569H152.268L165.568 282.312H158.345L155.71 275.939ZM153.543 270.712L148.827 259.325L144.11 270.712H153.543ZM202.307 252.569V282.312H195.423V270.117H181.911V282.312H175.027V252.569H181.911V264.296H195.423V252.569H202.307ZM228.932 282.822C224.683 282.822 221.369 281.647 218.989 279.295C216.638 276.944 215.462 273.588 215.462 269.225V252.569H222.346V268.97C222.346 274.296 224.555 276.958 228.974 276.958C231.127 276.958 232.77 276.321 233.903 275.046C235.036 273.743 235.603 271.718 235.603 268.97V252.569H242.402V269.225C242.402 273.588 241.212 276.944 238.832 279.295C236.481 281.647 233.181 282.822 228.932 282.822ZM277.418 266.846C279.117 267.384 280.449 268.29 281.412 269.565C282.375 270.811 282.856 272.355 282.856 274.197C282.856 276.803 281.837 278.814 279.797 280.23C277.786 281.618 274.84 282.312 270.959 282.312H255.577V252.569H270.109C273.735 252.569 276.511 253.263 278.437 254.651C280.392 256.039 281.369 257.923 281.369 260.302C281.369 261.747 281.015 263.036 280.307 264.169C279.627 265.302 278.664 266.194 277.418 266.846ZM262.418 257.753V264.764H269.259C270.959 264.764 272.248 264.466 273.126 263.871C274.004 263.276 274.443 262.398 274.443 261.237C274.443 260.075 274.004 259.211 273.126 258.645C272.248 258.05 270.959 257.753 269.259 257.753H262.418ZM270.449 277.128C272.262 277.128 273.622 276.831 274.528 276.236C275.463 275.641 275.93 274.721 275.93 273.474C275.93 271.01 274.103 269.778 270.449 269.778H262.418V277.128H270.449Z" fill="#0D3F54"/>
<path fill-rule="evenodd" clip-rule="evenodd" d="M142.181 8.46893L221.408 60.5127V164.6L142.181 216.644L62.9541 164.6V60.5127L142.181 8.46893Z" fill="#0B97BB"/>
<mask id="mask0_307_15764" style="mask-type:luminance" maskUnits="userSpaceOnUse" x="62" y="8" width="160" height="209">
<path d="M142.18 8.46893L221.407 60.5127V164.6L142.18 216.644L62.9531 164.6V60.5127L142.18 8.46893Z" fill="white"/>
</mask>
<g mask="url(#mask0_307_15764)">
<path fill-rule="evenodd" clip-rule="evenodd" d="M142.18 44.6556L221.407 96.6995V200.787L142.18 252.831L62.9531 200.787V96.6995L142.18 44.6556Z" fill="url(#paint0_linear_307_15764)"/>
<path fill-rule="evenodd" clip-rule="evenodd" d="M142.529 309.396L221.755 257.352V153.264L142.529 101.221L63.3018 153.264V257.352L142.529 309.396Z" fill="url(#paint1_linear_307_15764)"/>
<path fill-rule="evenodd" clip-rule="evenodd" d="M142.18 124.755L221.407 176.798V280.886L142.18 332.93L62.9531 280.886V176.798L142.18 124.755Z" fill="black"/>
</g>
<path fill-rule="evenodd" clip-rule="evenodd" d="M146.831 1.39099L226.058 53.4348C228.442 54.998 229.878 57.6589 229.878 60.5127V164.6C229.878 167.453 228.442 170.114 226.058 171.68L146.831 223.724C144.008 225.578 140.353 225.578 137.53 223.724L58.3031 171.68C55.9191 170.114 54.4834 167.453 54.4834 164.6V60.5127C54.4834 57.6589 55.9191 54.998 58.3031 53.4348L137.53 1.39099C140.353 -0.463663 144.008 -0.463663 146.831 1.39099ZM142.181 8.46893L62.9538 60.5127V164.6L142.181 216.644L221.408 164.6V60.5127L142.181 8.46893Z" fill="url(#paint2_linear_307_15764)"/>
<path fill-rule="evenodd" clip-rule="evenodd" d="M142.181 8.46893L221.408 60.5127V164.6L142.181 216.644L62.9541 164.6V60.5127L142.181 8.46893ZM142.181 20.6302L73.1191 65.9972V159.116L142.181 204.483L211.243 159.116V65.9972L142.181 20.6302Z" fill="white"/>
<path fill-rule="evenodd" clip-rule="evenodd" d="M145.098 58.8462L180.252 79.1427C182.058 80.1848 183.17 82.1121 183.17 84.1973V124.789C183.17 126.875 182.058 128.801 180.252 129.843L145.098 150.139C143.292 151.182 141.068 151.182 139.262 150.139L104.108 129.843C102.303 128.801 101.19 126.875 101.19 124.789V84.1973C101.19 82.1121 102.303 80.1848 104.108 79.1427L139.262 58.8462C141.068 57.8041 143.292 57.8041 145.098 58.8462ZM142.18 63.9007L107.027 84.1973V124.789L142.18 145.085L177.334 124.789V84.1973L142.18 63.9007Z" fill="white"/>
<path d="M148.279 146.102H136.081L136.081 160.332H148.279L148.279 146.102Z" fill="white"/>
<path d="M125.602 75.6466L111.43 83.6562L125.602 91.6659L139.774 83.6562L125.602 75.6466Z" fill="white"/>
<path d="M142.505 85.2015L128.333 93.2112L142.505 101.221L156.677 93.2111L142.505 85.2015Z" fill="white"/>
<path d="M142.552 66.0673L128.38 74.077L142.552 82.0866L156.724 74.077L142.552 66.0673Z" fill="white"/>
<path d="M159.456 75.6202L145.284 83.6298L159.456 91.6394L173.629 83.6298L159.456 75.6202Z" fill="white"/>
<defs>
<linearGradient id="paint0_linear_307_15764" x1="139.74" y1="54.8222" x2="139.74" y2="136.141" gradientUnits="userSpaceOnUse">
<stop stop-color="#0B97BB"/>
<stop offset="1" stop-color="#0B1828"/>
</linearGradient>
<linearGradient id="paint1_linear_307_15764" x1="140.089" y1="299.229" x2="140.089" y2="217.911" gradientUnits="userSpaceOnUse">
<stop stop-color="#0B97BB"/>
<stop offset="1" stop-color="#0B1828"/>
</linearGradient>
<linearGradient id="paint2_linear_307_15764" x1="50.6975" y1="112.557" x2="233.664" y2="112.557" gradientUnits="userSpaceOnUse">
<stop stop-color="#264D59"/>
<stop offset="1" stop-color="#0C3E54"/>
</linearGradient>
</defs>
</svg>

<svg xmlns="http://www.w3.org/2000/svg" fill="none" viewBox="0 0 285 294">
  <path fill="#0D3F54" d="M3.986 252.569h6.883v29.743H3.986v-29.743Zm47.595 0v29.743h-5.652L31.1 264.254v18.058h-6.798v-29.743h5.693l14.787 18.058v-18.058h6.799Zm20.294 5.524v7.86h13.767v5.524H71.875v10.835H64.99v-29.743H87.47v5.524H71.875Zm45.579 24.219-5.737-8.285H105.386v8.285h-6.883v-29.743h12.874c2.635 0 4.915.439 6.841 1.317 1.955.878 3.456 2.125 4.504 3.739 1.048 1.615 1.573 3.527 1.573 5.736 0 2.21-.539 4.122-1.615 5.737-1.048 1.586-2.55 2.804-4.504 3.654l6.671 9.56h-7.393Zm-.128-18.951c0-1.671-.538-2.946-1.615-3.824-1.076-.906-2.648-1.359-4.716-1.359h-5.609v10.367h5.609c2.068 0 3.64-.453 4.716-1.359 1.077-.907 1.615-2.182 1.615-3.825Zm38.384 12.578h-13.809l-2.635 6.373h-7.053l13.257-29.743h6.798l13.3 29.743h-7.223l-2.635-6.373Zm-2.167-5.227-4.716-11.387-4.717 11.387h9.433Zm48.764-18.143v29.743h-6.884v-12.195h-13.512v12.195h-6.884v-29.743h6.884v11.727h13.512v-11.727h6.884Zm26.625 30.253c-4.249 0-7.563-1.175-9.943-3.527-2.351-2.351-3.527-5.707-3.527-10.07v-16.656h6.884v16.401c0 5.326 2.209 7.988 6.628 7.988 2.153 0 3.796-.637 4.929-1.912 1.133-1.303 1.7-3.328 1.7-6.076v-16.401h6.799v16.656c0 4.363-1.19 7.719-3.57 10.07-2.351 2.352-5.651 3.527-9.9 3.527Zm48.486-15.976c1.699.538 3.031 1.444 3.994 2.719.963 1.246 1.444 2.79 1.444 4.632 0 2.606-1.019 4.617-3.059 6.033-2.011 1.388-4.957 2.082-8.838 2.082h-15.382v-29.743h14.532c3.626 0 6.402.694 8.328 2.082 1.955 1.388 2.932 3.272 2.932 5.651 0 1.445-.354 2.734-1.062 3.867-.68 1.133-1.643 2.025-2.889 2.677Zm-15-9.093v7.011h6.841c1.7 0 2.989-.298 3.867-.893.878-.595 1.317-1.473 1.317-2.634 0-1.162-.439-2.026-1.317-2.592-.878-.595-2.167-.892-3.867-.892h-6.841Zm8.031 19.375c1.813 0 3.173-.297 4.079-.892.935-.595 1.402-1.515 1.402-2.762 0-2.464-1.827-3.696-5.481-3.696h-8.031v7.35h8.031Z"/>
  <path fill="#0B97BB" fill-rule="evenodd" d="m142.181 8.469 79.227 52.044V164.6l-79.227 52.044L62.954 164.6V60.513l79.227-52.044Z" clip-rule="evenodd"/>
  <mask id="a" width="160" height="209" x="62" y="8" maskUnits="userSpaceOnUse" style="mask-type:luminance">
    <path fill="#fff" d="m142.18 8.469 79.227 52.044V164.6l-79.227 52.044L62.953 164.6V60.513L142.18 8.469Z"/>
  </mask>
  <g fill-rule="evenodd" clip-rule="evenodd" mask="url(#a)">
    <path fill="url(#b)" d="M142.18 44.656 221.407 96.7v104.087l-79.227 52.044-79.227-52.044V96.699l79.227-52.043Z"/>
    <path fill="url(#c)" d="m142.529 309.396 79.226-52.044V153.264l-79.226-52.043-79.227 52.043v104.088l79.227 52.044Z"/>
    <path fill="#000" d="m142.18 124.755 79.227 52.043v104.088L142.18 332.93l-79.227-52.044V176.798l79.227-52.043Z"/>
  </g>
  <path fill="url(#d)" fill-rule="evenodd" d="m146.831 1.391 79.227 52.044a8.462 8.462 0 0 1 3.82 7.078V164.6a8.47 8.47 0 0 1-3.82 7.08l-79.227 52.044a8.472 8.472 0 0 1-9.301 0L58.303 171.68a8.47 8.47 0 0 1-3.82-7.08V60.513a8.462 8.462 0 0 1 3.82-7.078L137.53 1.39a8.47 8.47 0 0 1 9.301 0Zm-4.65 7.078L62.954 60.513V164.6l79.227 52.044 79.227-52.044V60.513L142.181 8.469Z" clip-rule="evenodd"/>
  <path fill="#fff" fill-rule="evenodd" d="m142.181 8.469 79.227 52.044V164.6l-79.227 52.044L62.954 164.6V60.513l79.227-52.044Zm0 12.161L73.119 65.997v93.119l69.062 45.367 69.062-45.367V65.997L142.181 20.63Z" clip-rule="evenodd"/>
  <path fill="#fff" fill-rule="evenodd" d="m145.098 58.846 35.154 20.297a5.835 5.835 0 0 1 2.918 5.054v40.592a5.833 5.833 0 0 1-2.918 5.054l-35.154 20.296a5.834 5.834 0 0 1-5.836 0l-35.154-20.296a5.835 5.835 0 0 1-2.918-5.054V84.197a5.837 5.837 0 0 1 2.918-5.054l35.154-20.297a5.838 5.838 0 0 1 5.836 0Zm-2.918 5.055-35.153 20.296v40.592l35.153 20.296 35.154-20.296V84.197L142.18 63.901Z" clip-rule="evenodd"/>
  <path fill="#fff" d="M148.279 146.102h-12.198v14.23h12.198v-14.23ZM125.602 75.647l-14.172 8.01 14.172 8.009 14.172-8.01-14.172-8.01ZM142.505 85.201l-14.172 8.01 14.172 8.01 14.172-8.01-14.172-8.01ZM142.552 66.067l-14.172 8.01 14.172 8.01 14.172-8.01-14.172-8.01ZM159.456 75.62l-14.172 8.01 14.172 8.01 14.173-8.01-14.173-8.01Z"/>
  <defs>
    <linearGradient id="b" x1="139.74" x2="139.74" y1="54.822" y2="136.141" gradientUnits="userSpaceOnUse">
      <stop stop-color="#0B97BB"/>
      <stop offset="1" stop-color="#0B1828"/>
    </linearGradient>
    <linearGradient id="c" x1="140.089" x2="140.089" y1="299.229" y2="217.911" gradientUnits="userSpaceOnUse">
      <stop stop-color="#0B97BB"/>
      <stop offset="1" stop-color="#0B1828"/>
    </linearGradient>
    <linearGradient id="d" x1="50.697" x2="233.664" y1="112.557" y2="112.557" gradientUnits="userSpaceOnUse">
      <stop stop-color="#264D59"/>
      <stop offset="1" stop-color="#0C3E54"/>
    </linearGradient>
  </defs>
</svg>
